X:1
T:Title
%%score { 1 | 2 }
L:1/8
Q:1/4=100
M:4/4
K:Eb
V:1 treble nm="Grand Piano"
V:2 bass 
V:1
 [G,B,E]3 [B,EG] [EGB]2 [B,GB]2 | [B,FA]2 [B,EG]2 [A,DF]4 | [G,E]3 [B,EG] [EGB]2 [B,EB]2 | %3
w: Thoro~Harris * * *|||
 [B,DA]2 [B,EG]2 [A,DF]4 | [G,DG]3 [B,FA] [EGB]2 [_DGB]2 | c2 d2 e4 | B2 G2 [FA]2 [DF]2 | %7
w: ||||
 [DF]4 E4 |] %8
w: |
V:2
 E,3 E, E,2 E,2 | D,2 E,2 B,,4 | E,3 E, E,2 G,2 | F,2 E,2 B,,4 | E,3 E, E,2 E,2 | %5
 [A,CE]2 [A,=B,F]2 [=A,C_G]4 | [B,EG]2[K:bass] [B,E]2 [B,,B,]2 [B,,B,]2 | [B,,A,]4 [E,G,]4 |] %8

